X: 4336
T: THIS WAY COME. (Martha.)
%R: air, march
N: This is version 2, for ABC software that understands tremolo notation.
B: James Kerr "Merry Melodies" v.4 p.35 #336
Z: 2016 John Chambers <jc:trillian.mit.edu>
M: 2/4
L: 1/8
K: G
|:!f!\
g2d2 | e>fge | d>edB | dAAz |\
g2d2 | e>fge | d>edA | BGGz :|\
|:\
d/d/g/g/ b/b/a/a/ | !/!g!/!d!/!g!/!f | !/!e!/!c !/!g!/!e | !/!e!/!d !//!d2 |\
!/!d!/!e!/!d!/!c | !/!B!/!d!//!g2 | gbd'b | baa"^D.C."z :|

%%sep 1 1 500
%%sep 1 1 500

